packages/foundations/assets/icons/functional/images/technology/database_12.svg

<svg width="12" height="12" viewBox="0 0 12 12" fill="none" xmlns="http://www.w3.org/2000/svg">
<g clip-path="url(#clip0_232_461)">
<path fill-rule="evenodd" clip-rule="evenodd" d="M9.00001 1.79212C9.99413 1.79212 10.8 2.59801 10.8 3.59212C10.8 4.05311 10.6267 4.47362 10.3417 4.79206C10.6265 5.11011 10.8 5.53085 10.8 5.99212C10.8 6.45339 10.6265 6.87413 10.3412 7.19265C10.6267 7.51063 10.8 7.93114 10.8 8.39212C10.8 9.35073 10.0288 10.1921 9.00001 10.2079L3.00001 10.1921C2.0059 10.1921 1.20001 9.38623 1.20001 8.39212C1.20001 7.93114 1.3733 7.51063 1.6583 7.19218C1.37352 6.87413 1.20001 6.45339 1.20001 5.99212C1.20001 5.53114 1.3733 5.11063 1.6583 4.79218C1.37352 4.47413 1.20001 4.05339 1.20001 3.59212C1.20001 2.63351 1.96798 1.79212 3.00001 1.79212H9.00001ZM3.00001 7.79212C2.66864 7.79212 2.40001 8.06075 2.40001 8.39212C2.40001 8.69982 2.64975 8.99212 3.00001 8.99212H9.00001C9.33138 8.99212 9.60001 8.72349 9.60001 8.39212C9.60001 8.08442 9.35839 7.79212 9.00001 7.79212H3.00001ZM3.00001 5.39212C2.66864 5.39212 2.40001 5.66075 2.40001 5.99212C2.40001 6.29982 2.65632 6.59212 3.00001 6.59212H9.00001C9.33138 6.59212 9.60001 6.32349 9.60001 5.99212C9.60001 5.68442 9.37078 5.41122 9.00001 5.39212H3.00001ZM3.00001 2.99212C2.66864 2.99212 2.40001 3.26075 2.40001 3.59212C2.40001 3.89982 2.65749 4.19212 3.00001 4.19212H9.00001C9.33138 4.19212 9.60001 3.92349 9.60001 3.59212C9.60001 3.28442 9.34997 2.99212 9.00001 2.99212H3.00001Z" fill="#1A1C1F"/>
</g>
<defs>
<clipPath id="clip0_232_461">
<rect width="12" height="12" fill="white"/>
</clipPath>
</defs>
</svg>

<svg xmlns="http://www.w3.org/2000/svg" width="12" height="12" fill="none"><g clip-path="url(#a)"><path fill="#1A1C1F" fill-rule="evenodd" d="M9 1.792a1.8 1.8 0 0 1 1.342 3c.284.318.458.739.458 1.2s-.174.882-.459 1.2c.286.319.459.74.459 1.2 0 .959-.771 1.8-1.8 1.816l-6-.016a1.8 1.8 0 0 1-1.342-3 1.8 1.8 0 0 1-.458-1.2c0-.46.173-.881.458-1.2a1.798 1.798 0 0 1 1.342-3zm-6 6a.6.6 0 0 0 0 1.2h6a.6.6 0 0 0 0-1.2zm0-2.4a.6.6 0 0 0-.6.6c0 .308.256.6.6.6h6a.6.6 0 0 0 .6-.6c0-.308-.23-.58-.6-.6zm0-2.4a.6.6 0 0 0-.6.6c0 .308.257.6.6.6h6a.6.6 0 0 0 0-1.2z" clip-rule="evenodd"/></g><defs><clipPath id="a"><path fill="#fff" d="M0 0h12v12H0z"/></clipPath></defs></svg>
